X: 143	% 37
T: the Blind Girl
C: Composer Unknown
S: Viola Ruth "Pioneer Western Folk Tunes" 1948 p.14 #3
R: waltz
Z: 2019 John Chambers <jc:trillian.mit.edu>
M: 3/4
L: 1/4
Q: "Waltz"
K: C
V: 1 name="37"
C |\
(E2G) | (E2D) | C2A, | C2G | A2-A | c2-c | G3- | G2G |\
(c2d) | (c2A) | (G2A) | (E2C) | (G2A) | (E2D) | C3- | C2 |]
%%text (Change to Key of F) (Words available) variety
